X: 3
T: the Steam Boat Reel
R: reel
M: C|
L: 1/8
Z: 2010 John Chambers <jc:trillian.mit.edu>
B: Manuscript tune book dated 1831, of William Thomas Green (1774-1860) p.14-15
F: http://www.asaplive.com/archive/browse_by_collection.asp
N: The asaplive.com web site is complex, and links to its files don't usually work.
K: G
g2bg d2gd | BcdB G2G2 | cdec ABAG |FABF D2D2 | g2bg d2gd | BcdB G2G2 cedc BAGF | A2G2 G2 :|
B/c/ | dBdB gdgd | ecec afaf | dBdB gdgd | fgag defd | g2bg d2gd | BcdB G2G2 | ce dc BAGF | A2G2 G2 :|

